Server.killAll;

Server.default.options.memSize = 65536;

Server.default.options.numWireBufs = 128;

ServerOptions.new.outDevice = "Mac book Pro Speakers";

ServerOptions.new.outDevice = "External Headphones";

ServerOptions.new.outDevice = "M4";

SuperDirt.start;

Quarks.folder;


